X:0937
T:Mr. Willm. Stewart's Strathsy.
M:C
L:1/8
Q:1/4=120
I: :: ||
N:second part has only six bars in the book
N:another version in Malcolm Macdonald's first collection, 1788
N:first two bars of second part are adapted from that
Z:Jack Campin * www.campin.me.uk * 2009
K:D
D2A>F A>BdA|B<dAF  E/E/E E2 |D2A>F A>BdA|B<dA>F D/D/D D2:|
f>afd e>fed|B<dAF  E/E/E E2 |f>afd e>fed|A>gf>e d/d/d d2 |
f>afd e>fec|B<dA>F E/E/E E>F|D2A>F A>BdA|B<dA>F D/D/D D2|]
% Malcolm MacDonald version of second part
% fafd efed|BdAF E/E/E E2|fafd efed|Agfe d/d/d d2|
% fafd efec|BdAF E/E/E EF|D2AF ABdA|BdAF D/D/D D2|]

